img/telegram.svg

<svg width="13" height="10" viewBox="0 0 13 10" fill="none" xmlns="http://www.w3.org/2000/svg">
<g clip-path="url(#clip0_1_120)">
<path d="M4.198 5.25099L10.052 2.07099C10.157 2.01399 10.265 2.13999 10.175 2.21399L5.344 6.17399C5.17853 6.30611 5.06805 6.495 5.034 6.70399L4.869 7.77899C4.847 7.92299 4.618 7.93699 4.573 7.79799L3.94 5.83599C3.868 5.61299 3.973 5.37399 4.198 5.25099ZM0.23 4.79499L3.225 5.78299L4.385 9.07699C4.459 9.28799 4.751 9.36599 4.945 9.22599L6.615 8.02299C6.70353 7.96118 6.8083 7.9268 6.91624 7.92414C7.02418 7.92147 7.13052 7.95063 7.222 8.00799L10.233 9.93999C10.44 10.073 10.734 9.97299 10.786 9.75199L12.992 0.375988C13.049 0.133988 12.78 -0.068012 12.52 0.020988L0.226 4.21099C-0.0770003 4.31499 -0.0740003 4.69399 0.23 4.79499Z" fill="#8b008b"/>
</g>
<defs>
<clipPath id="clip0_1_120">
<rect width="13" height="10" fill="white"/>
</clipPath>
</defs>
</svg>

<svg width="13" height="10" fill="none" xmlns="http://www.w3.org/2000/svg"><g clip-path="url(#clip0_1_120)"><path d="M4.198 5.251l5.854-3.18c.105-.057.213.069.123.143l-4.831 3.96a.854.854 0 00-.31.53l-.165 1.075c-.022.144-.251.158-.296.019L3.94 5.836c-.072-.223.033-.462.258-.585zM.23 4.795l2.995.988 1.16 3.294c.074.211.366.289.56.149l1.67-1.203a.55.55 0 01.607-.015l3.011 1.932c.207.133.501.033.553-.188L12.992.376c.057-.242-.212-.444-.472-.355L.226 4.211c-.303.104-.3.483.004.584z" fill="#8b008b"/></g><defs><clipPath id="clip0_1_120"><path fill="#fff" d="M0 0h13v10H0z"/></clipPath></defs></svg>
